package/converter/svg/regular/hourglass-start.svg

<svg xmlns="http://www.w3.org/2000/svg" viewBox="0 0 384 512"><!-- Font Awesome Pro 6.0.0-alpha2 by @fontawesome - https://fontawesome.com License - https://fontawesome.com/license (Commercial License) --><path d="M360 464H352V445.031C352 404.406 336.188 366.25 307.484 337.531L225.938 256L307.484 174.469C336.188 145.75 352 107.594 352 66.969V48H360C373.25 48 384 37.25 384 24S373.25 0 360 0H24C10.75 0 0 10.75 0 24S10.75 48 24 48H32V69.25C32 108.125 46.672 145.125 73.312 173.406L151.047 256L73.328 338.594C46.672 366.875 32 403.875 32 442.75V464H24C10.75 464 0 474.75 0 488S10.75 512 24 512H360C373.25 512 384 501.25 384 488S373.25 464 360 464ZM304 464H80V442.75C80 416.156 90.047 390.844 108.281 371.469L188.402 286.336L273.547 371.469C293.188 391.125 304 417.219 304 445.031V464Z"/></svg>

<svg xmlns="http://www.w3.org/2000/svg" viewBox="0 0 384 512"><!--! Font Awesome Pro 6.6.0 by @fontawesome - https://fontawesome.com License - https://fontawesome.com/license (Commercial License) Copyright 2024 Fonticons, Inc. --><path d="M0 488c0 13.3 10.7 24 24 24l336 0c13.3 0 24-10.7 24-24s-10.7-24-24-24l-8 0 0-19c0-40.3-16-79-44.5-107.5L225.9 256l81.5-81.5C336 146 352 107.3 352 67l0-19 8 0c13.3 0 24-10.7 24-24s-10.7-24-24-24L24 0C10.7 0 0 10.7 0 24S10.7 48 24 48l8 0 0 19c0 40.3 16 79 44.5 107.5L158.1 256 76.5 337.5C48 366 32 404.7 32 445l0 19-8 0c-13.3 0-24 10.7-24 24zM84.1 96C81.4 86.7 80 76.9 80 67l0-19 224 0 0 19c0 9.9-1.4 19.7-4.1 29L84.1 96zM273.5 371.5C293 391 304 417.4 304 445l0 19L80 464l0-19c0-27.6 11-54 30.5-73.5L192 289.9l81.5 81.5z"/></svg>
